Adwaita++/apps/16/atom.svg

<svg height="16" width="16" xmlns="http://www.w3.org/2000/svg">
  <g fill="#474747" stroke="#474747" stroke-width=".484855">
    <path d="m11.356105 1.4535075c-.84887.0322303-1.815805.5856807-2.8390539 1.4753987-1.0232487.8897181-2.091604 2.1350604-3.0530714 3.6155788-1.1395183 1.7547174-1.9146046 3.508944-2.2481363 4.9584-.1667659.724729-.2245442 1.372956-.1496234 1.92048.07492.547524.2948491 1.01359.7026606 1.278427.3870161.251335.8727041.275752 1.3731249.145835.5004214-.129917 1.0349263-.409874 1.5947186-.808723a.29649616.29649616 0 1 0 -.3428076-.482961c-.5197726.370334-1.0024512.614696-1.3996405.717812-.3971883.103116-.6888577.069926-.9015268-.06818-.2238556-.145374-.3789724-.420144-.4393998-.861754-.0604324-.441611-.015719-1.030972.1401531-1.708357.3117443-1.35477 1.0608744-3.0632581 2.1685899-4.7690023.9346367-1.4392039 1.9744096-2.6446521 2.9451155-3.4886839.9707061-.8440317 1.8822171-1.3090784 2.4716251-1.3314572.218076-.0084.388693.036099.528416.1268956.209789.1362396.357477.3852408.426142.7822075.06867.3969666.04665.9264028-.07386 1.5397935a.29649616.29649616 0 1 0 .581445.1136378c.130021-.6617539.164453-1.2538857.07765-1.7557074-.086802-.5018216-.307006-.9297126-.689402-1.1780461-.254756-.1650235-.559143-.2336912-.873119-.221594z"/>
    <path d="m7.0056671 5.1410576c-1.822733.0056243-3.4481532.2561208-4.6534717.6912966-.6026593.2175884-1.1024818.4802208-1.4716107.7992534-.3691288.3190327-.6133047.7113861-.63637216 1.1515307-.02201242.4192745.16054907.8178321.46591556 1.1610008.3053656.3431688.7360071.6459278 1.2651681.9185728a.29649616.29649616 0 1 0 .2708371-.5265229c-.484696-.2497343-.8574913-.5215362-1.0928176-.7859946-.2353273-.2644593-.330258-.5068373-.3181861-.7367527.0126547-.2414801.1448436-.4832947.4337183-.732964.2888737-.2496703.7279866-.4905114 1.2841075-.6912976 1.1117803-.4014047 2.6846839-.649696 4.4527117-.6553116.3676516 0 .7422176.00679 1.1212272.028412l.00189.00194c2.0310567.1064441 3.8537377.50509 5.1326457 1.0492563.639454.2720832 1.140513.5816854 1.462141.8901638.321627.3084783.453371.5951488.4394.8617541-.01208.230471-.131365.4597512-.393945.698873-.26258.2391208-.662479.4726754-1.172364.6704632a.29650208.29650208 0 1 0 .214018.5530371c.556728-.215959 1.017446-.473997 1.357972-.7841005.340528-.3101045.56512-.6880054.58713-1.1079693.025446-.4856028-.222433-.9376622-.621217-1.320143-.398784-.3824798-.957894-.716478-1.642067-1.0075888-1.367881-.5820229-3.242983-.9869408-5.3315123-1.0966054h-.00189c-.3928971-.0223227-.7785896-.0303034-1.1534255-.0303034z"/>
    <path d="m4.994276 1.1239577c-.1808858.0135837-.3582487.0610694-.52084.1439413-.4333362.2207933-.6994276.6618371-.8314507 1.1988798-.1320221.5370428-.1427452 1.1874244-.0530334 1.9261623.1794293 1.4774761.7660215 3.3062251 1.7159319 5.1705247.9498835 1.8642652 2.0832803 3.4126782 3.1723911 4.4261952.5445555.506758 1.0772011.882087 1.5890371 1.090924.511836.208836 1.025067.251082 1.458353.0303.416739-.212335.682019-.630305.818193-1.138273.136175-.507967.156505-1.122625.08523-1.820101-.142554-1.394949-.663192-3.1231267-1.522747-4.9091561a.29649616.29649616 0 1 0 -.534099.2575792c.835095 1.7352001 1.335212 3.4145349 1.467823 4.7121839.06631.648826.03849 1.201092-.07008 1.606083-.108569.40499-.28463.646775-.513265.763268-.237798.121169-.553019.117334-.965921-.05113-.4129-.168475-.9001185-.501736-1.4091066-.975396-1.0179763-.94732-2.1240646-2.449279-3.0473895-4.2614205-.9232995-1.8120719-1.4876097-3.5906365-1.6553249-4.9716581-.0838605-.6905107-.0667548-1.2825877.0397678-1.7159322.1065304-.4333445.2887748-.6894798.5265225-.8106169.0890776-.0454048.1816121-.0711389.2935642-.0795463.4156993-.0311975 1.0540143.2413394 1.7538166.8219805a.29657488.29657488 0 1 0 .378793-.4564455c-.7597289-.6303635-1.4920757-1.0096861-2.1761661-.9583463z"/>
    <path d="m8.9372469 8.2947961a.88940031.88940031 0 0 1 -1.7788006 0 .88940031.88940031 0 1 1 1.7788006 0z"/>
  </g>
</svg>

<svg xmlns="http://www.w3.org/2000/svg" width="16" height="16" version="1.1">
 <path style="fill:#474747;stroke:#474747;stroke-width:0.48485503" d="M 11.356105,1.4535075 C 10.507235,1.4857378 9.5403,2.0391882 8.5170511,2.9289062 7.4938024,3.8186243 6.4254471,5.0639666 5.4639797,6.544485 c -1.1395183,1.7547174 -1.9146046,3.508944 -2.2481363,4.9584 -0.1667659,0.724729 -0.2245442,1.372956 -0.1496234,1.92048 0.07492,0.547524 0.2948491,1.01359 0.7026606,1.278427 0.3870161,0.251335 0.8727041,0.275752 1.3731249,0.145835 0.5004214,-0.129917 1.0349263,-0.409874 1.5947186,-0.808723 A 0.29649616,0.29649616 0 1 0 6.3939165,13.555943 C 5.8741439,13.926277 5.3914653,14.170639 4.994276,14.273755 4.5970877,14.376871 4.3054183,14.343681 4.0927492,14.205575 3.8688936,14.060201 3.7137768,13.785431 3.6533494,13.343821 3.592917,12.90221 3.6376304,12.312849 3.7935025,11.635464 4.1052468,10.280694 4.8543769,8.5722059 5.9620924,6.8664617 6.8967291,5.4272578 7.936502,4.2218096 8.9072079,3.3777778 9.877914,2.5337461 10.789425,2.0686994 11.378833,2.0463206 c 0.218076,-0.0084 0.388693,0.036099 0.528416,0.1268956 0.209789,0.1362396 0.357477,0.3852408 0.426142,0.7822075 0.06867,0.3969666 0.04665,0.9264028 -0.07386,1.5397935 A 0.29649616,0.29649616 0 1 0 12.840976,4.608855 C 12.970997,3.9471011 13.005429,3.3549693 12.918626,2.8531476 12.831824,2.351326 12.61162,1.923435 12.229224,1.6751015 11.974468,1.510078 11.670081,1.4414103 11.356105,1.4535075 Z"/>
 <path style="fill:#474747;stroke:#474747;stroke-width:0.48485503" d="M 7.0056671,5.1410576 C 5.1829341,5.1466819 3.5575139,5.3971784 2.3521954,5.8323542 1.7495361,6.0499426 1.2497136,6.312575 0.8805847,6.6316076 0.5114559,6.9506403 0.26728,7.3429937 0.24421254,7.7831383 0.22220012,8.2024128 0.40476161,8.6009704 0.7101281,8.9441391 1.0154937,9.2873079 1.4461352,9.5900669 1.9752962,9.8627119 A 0.29649616,0.29649616 0 1 0 2.2461333,9.336189 C 1.7614373,9.0864547 1.388642,8.8146528 1.1533157,8.5501944 0.9179884,8.2857351 0.8230577,8.0433571 0.8351296,7.8134417 0.8477843,7.5719616 0.9799732,7.330147 1.2688479,7.0804777 1.5577216,6.8308074 1.9968345,6.5899663 2.5529554,6.3891801 3.6647357,5.9877754 5.2376393,5.7394841 7.0056671,5.7338685 c 0.3676516,0 0.7422176,0.00679 1.1212272,0.028412 l 0.00189,0.00194 c 2.0310567,0.1064441 3.8537377,0.50509 5.1326457,1.0492563 0.639454,0.2720832 1.140513,0.5816854 1.462141,0.8901638 0.321627,0.3084783 0.453371,0.5951488 0.4394,0.8617541 -0.01208,0.230471 -0.131365,0.4597512 -0.393945,0.698873 -0.26258,0.2391208 -0.662479,0.4726754 -1.172364,0.6704632 A 0.29650208,0.29650208 0 1 0 13.81068,10.487768 C 14.367408,10.271809 14.828126,10.013771 15.168652,9.7036675 15.50918,9.393563 15.733772,9.0156621 15.755782,8.5956982 15.781228,8.1100954 15.533349,7.658036 15.134565,7.2755552 14.735781,6.8930754 14.176671,6.5590772 13.492498,6.2679664 12.124617,5.6859435 10.249515,5.2810256 8.1609857,5.171361 h -0.00189 C 7.7661986,5.1490383 7.3805061,5.1410576 7.0056702,5.1410576 Z"/>
 <path style="fill:#474747;stroke:#474747;stroke-width:0.48485503" d="M 4.994276,1.1239577 C 4.8133902,1.1375414 4.6360273,1.1850271 4.473436,1.267899 4.0400998,1.4886923 3.7740084,1.9297361 3.6419853,2.4667788 3.5099632,3.0038216 3.4992401,3.6542032 3.5889519,4.3929411 c 0.1794293,1.4774761 0.7660215,3.3062251 1.7159319,5.1705247 0.9498835,1.8642652 2.0832803,3.4126782 3.1723911,4.4261952 0.5445555,0.506758 1.0772011,0.882087 1.5890371,1.090924 0.511836,0.208836 1.025067,0.251082 1.458353,0.0303 0.416739,-0.212335 0.682019,-0.630305 0.818193,-1.138273 0.136175,-0.507967 0.156505,-1.122625 0.08523,-1.820101 -0.142554,-1.394949 -0.663192,-3.1231267 -1.522747,-4.9091561 a 0.29649616,0.29649616 0 1 0 -0.534099,0.2575792 c 0.835095,1.7352001 1.335212,3.4145349 1.467823,4.7121839 0.06631,0.648826 0.03849,1.201092 -0.07008,1.606083 -0.108569,0.40499 -0.28463,0.646775 -0.513265,0.763268 -0.237798,0.121169 -0.553019,0.117334 -0.965921,-0.05113 C 9.876899,14.362864 9.3896805,14.029603 8.8806924,13.555943 7.8627161,12.608623 6.7566278,11.106664 5.8333029,9.2945225 4.9100034,7.4824506 4.3456932,5.703886 4.177978,4.3228644 4.0941175,3.6323537 4.1112232,3.0402767 4.2177458,2.6069322 4.3242762,2.1735877 4.5065206,1.9174524 4.7442683,1.7963153 4.8333459,1.7509105 4.9258804,1.7251764 5.0378325,1.716769 5.4535318,1.6855715 6.0918468,1.9581084 6.7916491,2.5387495 A 0.29657488,0.29657488 0 1 0 7.1704421,2.082304 C 6.4107132,1.4519405 5.6783664,1.0726179 4.994276,1.1239577 Z"/>
 <path style="fill:#474747;stroke:#474747;stroke-width:0.48485503" d="m 8.9372469,8.2947961 a 0.88940031,0.88940031 0 0 1 -1.7788006,0 0.88940031,0.88940031 0 1 1 1.7788006,0 z"/>
</svg>
